!!!OTL: GAR FROEHLICH TRET ICH IN DIE WELT
!!!ARE: Europa, Mitteleuropa, Deutschland
!!!SCT: B0524
!!!YEM: Copyright 1995, estate of Helmut Schaffrath.
**kern
*ICvox
*Ivox
*M6/8
*k[]
*C:
{16E
16F
=1
4G
8G
4c
8c
=2
4G
8G
4e}
{8e
=3
4d
8d
8f
8d
8B
=4
4.c
4r}
{16E
16F
=5
4G
8G
4c
8c
=6
4G
8G
4e}
{8e
=7
4d
8d
8d
8c
8A
=8
4.G
4r}
{8d
=9
4d
8B
4G
8d
=10
4e
8c
4G}
{8c
=11
4d
8B
4G
8d
=12
4.e
4r}
{16E
16F
=13
4G
8G
4c
8c
=14
4G
8G
4e}
{8e
=15
4d
8d
8B
8A
8B
=16
4.c
4r}
==
!!!AGN: Wander - Lied
!!!ONB: ESAC (Essen Associative Code) Database: BOEHME
!!!AMT: compound duple
!!!AIN: vox
!!!EED: Helmut Schaffrath
!!!EEV: 1.0
*-
